app/dist/common/images/infracap-mlp.svg

<svg fill="none" height="18" viewBox="0 0 18 18" width="18" xmlns="http://www.w3.org/2000/svg"><path d="m0 0h18v18h-18z" fill="#f0f3fa"/><path d="m9.8279 4v.12945l.3424.12945c.0883.03236.1435.0863.0994.22654l-.79522 2.33009c-.05522.1726-.15461.42072-.16566.6041h-.02209c-.01104-.18338-.08835-.38835-.14357-.59331l-.70683-2.35167c-.04417-.14024.01105-.19418.0994-.22654l.34237-.12945v-.11866h-1.93273v.11866l.18775.11866c.07731.05394.12149.10788.16566.23733l1.10442 3.58785h1.25904l1.20386-3.58785c.0552-.12945.0883-.18339.1656-.23733l.1878-.11866v-.11866zm1.0934 9.7519c-.0773-.0539-.1215-.1079-.1657-.2373l-1.10441-3.5771h-1.25903l-1.20382 3.5771c-.05522.1294-.08835.1834-.16566.2373l-.18775.1187v.1294h1.36947v-.1294l-.34237-.1295c-.08835-.0324-.14357-.0863-.09939-.2265l.79518-2.3301c.05522-.1726.15462-.4207.16566-.6041h.02209c.01104.1834.08835.3883.14357.5933l.70683 2.3517c.04418.1402-.01104.1941-.0994.2265l-.34237.1294v.1187h1.9548v-.1187zm-4.98095-8.55449c-.08836-.10787-.12149-.1726-.13253-.2589l-.01105-.21575-.11044-.05394-.68474 1.16505.11044.05394.28715-.22654c.07731-.06472.14358-.0863.24298.03237l1.66767 1.84466c.12148.14023.29819.3452.45281.44228l-.01105.02158c-.16566-.07551-.38654-.11866-.59638-.1726l-2.44077-.57174c-.15461-.03236-.16566-.09709-.15461-.19417l.05522-.35599-.11044-.05394-.96085 1.62891.11044.05394.1988-.09709c.07731-.04315.15462-.05394.29819-.02157l3.76615.82881.58067-.93479z" fill="#686866"/><path d="m14.3785 9.6742-.1988.09709c-.0773.04315-.1546.05394-.2982.02158l-3.8013-.7767-.52729.9202 2.55049 2.85543c.0884.1079.1215.1726.1325.2589l.0111.2157.1104.054.6848-1.1651-.1105-.0539-.2871.2265c-.0773.0647-.1436.0863-.243-.0323l-1.6677-1.8231c-.1214-.1403-.2982-.3452-.4528-.4423l.0111-.0216c.1656.0755.3865.1187.5964.1726l2.4407.5718c.1546.0323.1657.097.1546.1941l-.0552.356.1105.054.9608-1.62896zm-10.27107.03237c-.14357.02157-.20984.02157-.29819-.02158l-.1988-.09709-.11044.05394.68474 1.16506.11044-.0539-.05522-.356c-.02209-.0863 0-.1618.15462-.1942l2.47389-.49623c.18776-.04315.45282-.0863.61848-.16182l.01104.02158c-.15462.09709-.29819.2589-.45281.42071l-1.72289 1.77996c-.0994.1079-.17671.0863-.24297.0323l-.28715-.2265-.11044.0539.96084 1.6289.11044-.0539.01105-.2157c.01104-.0863.03313-.1511.13253-.2589l2.62847-2.79073-.59402-.9202zm9.69677-2.589-.1104.05394.0552.35598c.0221.0863 0 .16182-.1546.19418l-2.4739.49622c-.1878.04315-.4528.0863-.6185.16182l-.011-.02158c.1546-.09709.2982-.2589.4528-.42071l1.7229-1.76915c.0994-.10787.1767-.0863.2429-.03236l.2872.22654.1104-.05394-.9608-1.62891-.1105.05394-.011.21575c-.011.08629-.0331.15102-.1325.25889l-2.57953 2.83927.56733.96872 3.7903-.80906c.1436-.02158.2098-.02158.2982.02157l.1988.09709.1104-.05394z" fill="#686866"/><path d="m9.57521 8h-1.12647l-.55335 1.00508.55335.99492h1.12647l.56319-.99492z" fill="#000"/></svg>

<!-- by TradingView --><svg width="18" height="18" viewBox="0 0 18 18" fill="none" xmlns="http://www.w3.org/2000/svg">
<rect width="18" height="18" fill="#F0F3FA"/>
<path d="M9.8279 4V4.12945L10.1703 4.2589C10.2586 4.29126 10.3138 4.3452 10.2697 4.48544L9.47448 6.81553C9.41926 6.98813 9.31987 7.23625 9.30882 7.41963H9.28673C9.27569 7.23625 9.19838 7.03128 9.14316 6.82632L8.43633 4.47465C8.39216 4.33441 8.44738 4.28047 8.53573 4.24811L8.8781 4.11866V4H6.94537V4.11866L7.13312 4.23732C7.21043 4.29126 7.25461 4.3452 7.29878 4.47465L8.4032 8.0625H9.66224L10.8661 4.47465C10.9213 4.3452 10.9544 4.29126 11.0317 4.23732L11.2195 4.11866V4H9.8279ZM10.9213 13.7519C10.844 13.698 10.7998 13.644 10.7556 13.5146L9.65119 9.9375H8.39216L7.18834 13.5146C7.13312 13.644 7.09999 13.698 7.02268 13.7519L6.83493 13.8706V14H8.2044V13.8706L7.86203 13.7411C7.77368 13.7087 7.71846 13.6548 7.76264 13.5146L8.55782 11.1845C8.61304 11.0119 8.71244 10.7638 8.72348 10.5804H8.74557C8.75661 10.7638 8.83392 10.9687 8.88914 11.1737L9.59597 13.5254C9.64015 13.6656 9.58493 13.7195 9.49657 13.7519L9.1542 13.8813V14H11.109V13.8813L10.9213 13.7519ZM5.94035 5.19741C5.85199 5.08954 5.81886 5.02481 5.80782 4.93851L5.79677 4.72276L5.68633 4.66882L5.00159 5.83387L5.11203 5.88781L5.39918 5.66127C5.47649 5.59655 5.54276 5.57497 5.64216 5.69364L7.30983 7.5383C7.43131 7.67853 7.60802 7.8835 7.76264 7.98058L7.75159 8.00216C7.58593 7.92665 7.36505 7.8835 7.15521 7.82956L4.71444 7.25782C4.55983 7.22546 4.54878 7.16073 4.55983 7.06365L4.61505 6.70766L4.50461 6.65372L3.54376 8.28263L3.6542 8.33657L3.853 8.23948C3.93031 8.19633 4.00762 8.18554 4.15119 8.21791L7.91734 9.04672L8.49801 8.11193L5.94035 5.19741Z" fill="#686866"/>
<path d="M14.3785 9.6742L14.1797 9.77129C14.1024 9.81444 14.0251 9.82523 13.8815 9.79287L10.0802 9.01617L9.55291 9.93637L12.1034 12.7918C12.1918 12.8997 12.2249 12.9644 12.2359 13.0507L12.247 13.2664L12.3574 13.3204L13.0422 12.1553L12.9317 12.1014L12.6446 12.3279C12.5673 12.3926 12.501 12.4142 12.4016 12.2956L10.7339 10.4725C10.6125 10.3322 10.4357 10.1273 10.2811 10.0302L10.2922 10.0086C10.4578 10.0841 10.6787 10.1273 10.8886 10.1812L13.3293 10.753C13.4839 10.7853 13.495 10.85 13.4839 10.9471L13.4287 11.3031L13.5392 11.3571L14.5 9.72814L14.3785 9.6742ZM4.10743 9.70657C3.96386 9.72814 3.89759 9.72814 3.80924 9.68499L3.61044 9.5879L3.5 9.64184L4.18474 10.8069L4.29518 10.753L4.23996 10.397C4.21787 10.3107 4.23996 10.2352 4.39458 10.2028L6.86847 9.70657C7.05623 9.66342 7.32129 9.62027 7.48695 9.54475L7.49799 9.56633C7.34337 9.66342 7.1998 9.82523 7.04518 9.98704L5.32229 11.767C5.22289 11.8749 5.14558 11.8533 5.07932 11.7993L4.79217 11.5728L4.68173 11.6267L5.64257 13.2556L5.75301 13.2017L5.76406 12.986C5.7751 12.8997 5.79719 12.8349 5.89659 12.7271L8.52506 9.93637L7.93104 9.01617L4.10743 9.70657ZM13.8042 7.11757L13.6938 7.17151L13.749 7.52749C13.7711 7.61379 13.749 7.68931 13.5944 7.72167L11.1205 8.21789C10.9327 8.26104 10.6677 8.30419 10.502 8.37971L10.491 8.35813C10.6456 8.26104 10.7892 8.09923 10.9438 7.93742L12.6667 6.16827C12.7661 6.0604 12.8434 6.08197 12.9096 6.13591L13.1968 6.36245L13.3072 6.30851L12.3464 4.6796L12.2359 4.73354L12.2249 4.94929C12.2139 5.03558 12.1918 5.10031 12.0924 5.20818L9.51287 8.04745L10.0802 9.01617L13.8705 8.20711C14.0141 8.18553 14.0803 8.18553 14.1687 8.22868L14.3675 8.32577L14.4779 8.27183L13.8042 7.11757Z" fill="#686866"/>
<path d="M9.57521 8H8.44874L7.89539 9.00508L8.44874 10H9.57521L10.1384 9.00508L9.57521 8Z" fill="black"/>
</svg>
